src/lib/packages/icons/src/assets/line/calendar-edit.svg

<svg width="24" height="24" viewBox="0 0 24 24" fill="none" xmlns="http://www.w3.org/2000/svg">
<path d="M18 3.75H16.75V3C16.75 2.586 16.414 2.25 16 2.25C15.586 2.25 15.25 2.586 15.25 3V3.75H8.75V3C8.75 2.586 8.414 2.25 8 2.25C7.586 2.25 7.25 2.586 7.25 3V3.75H6C3.582 3.75 2.25 5.082 2.25 7.5V18C2.25 20.418 3.582 21.75 6 21.75H18C20.418 21.75 21.75 20.418 21.75 18V7.5C21.75 5.082 20.418 3.75 18 3.75ZM6 5.25H7.25V6C7.25 6.414 7.586 6.75 8 6.75C8.414 6.75 8.75 6.414 8.75 6V5.25H15.25V6C15.25 6.414 15.586 6.75 16 6.75C16.414 6.75 16.75 6.414 16.75 6V5.25H18C19.577 5.25 20.25 5.923 20.25 7.5V8.25H3.75V7.5C3.75 5.923 4.423 5.25 6 5.25ZM18 20.25H6C4.423 20.25 3.75 19.577 3.75 18V9.75H20.25V18C20.25 19.577 19.577 20.25 18 20.25ZM15.1079 10.9651C14.8089 10.6651 14.412 10.5 13.988 10.5C13.563 10.5 13.165 10.6661 12.866 10.9661L7.71899 16.137C7.57799 16.278 7.5 16.468 7.5 16.666V18.749C7.5 19.163 7.836 19.499 8.25 19.499H10.333C10.531 19.499 10.7221 19.42 10.8621 19.281L16.0339 14.1331C16.3339 13.8341 16.5 13.436 16.5 13.012C16.5 12.588 16.3359 12.1911 16.0359 11.8911L15.1079 10.9651ZM10.0229 18H9V16.9761C9 16.9761 10.8731 15.0949 12.3101 13.6509L13.3491 14.6899C11.9051 16.1269 10.0229 18 10.0229 18ZM14.9761 13.0701C14.9641 13.0821 14.7451 13.3011 14.4121 13.6321L13.3679 12.5879C13.6989 12.2559 13.917 12.0359 13.929 12.0249C13.986 11.9679 14.0471 12.0249 14.0471 12.0249L14.9761 12.9529C14.9761 12.9529 15.0321 13.0131 14.9761 13.0701Z" fill="currentColor"/>
</svg>

<svg xmlns="http://www.w3.org/2000/svg" width="24" height="24" fill="none"><path fill="currentColor" d="M18 3.75h-1.25V3a.75.75 0 0 0-1.5 0v.75h-6.5V3a.75.75 0 0 0-1.5 0v.75H6c-2.418 0-3.75 1.332-3.75 3.75V18c0 2.418 1.332 3.75 3.75 3.75h12c2.418 0 3.75-1.332 3.75-3.75V7.5c0-2.418-1.332-3.75-3.75-3.75ZM6 5.25h1.25V6a.75.75 0 0 0 1.5 0v-.75h6.5V6a.75.75 0 0 0 1.5 0v-.75H18c1.577 0 2.25.673 2.25 2.25v.75H3.75V7.5c0-1.577.673-2.25 2.25-2.25Zm12 15H6c-1.577 0-2.25-.673-2.25-2.25V9.75h16.5V18c0 1.577-.673 2.25-2.25 2.25Zm-2.892-9.285a1.57 1.57 0 0 0-1.12-.465c-.425 0-.823.166-1.122.466l-5.147 5.171a.747.747 0 0 0-.219.529v2.083c0 .414.336.75.75.75h2.083c.198 0 .39-.079.53-.218l5.17-5.148c.3-.299.467-.697.467-1.121 0-.424-.164-.82-.464-1.12l-.928-.927ZM10.023 18H9v-1.024l3.31-3.325 1.04 1.039L10.022 18Zm4.953-4.93c-.012.012-.23.231-.564.562l-1.044-1.044.561-.563c.057-.057.118 0 .118 0l.93.928s.055.06 0 .117Z"/></svg>
